X:1
%
T:Love & a Bottle [1]
M:9/4
L:1/8
R:Country Dance
B:Wright's Compleat Collection of Celebrated Country Dances (1740, p. 45)
Z:AK/Fiddler's Companion
K:G
G6 B4G2 A2F2D2|A4B2 c3dc2 B2G2E2|
g4 f4e2 d2c2B2|A2B2G2 F4G2 A2F2D2:|
|:A6 D4c2 B4A2|d2c2B2 A2B2G2 F2E2 D2|
g6 f4e2 d2c2B2|A2B2G2A2D2F2G6:|]

